packages/design-system/src/icons/assets/ic_sic_gray_18.svg

<svg width="18" height="19" viewBox="0 0 18 19" fill="none" xmlns="http://www.w3.org/2000/svg">
<path d="M14.175 15.525L9.975 11.325C9.6 11.625 9.16875 11.8625 8.68125 12.0375C8.19375 12.2125 7.675 12.3 7.125 12.3C5.7625 12.3 4.6095 11.8283 3.666 10.8848C2.722 9.9408 2.25 8.78755 2.25 7.42505C2.25 6.06255 2.722 4.9093 3.666 3.9653C4.6095 3.0218 5.7625 2.55005 7.125 2.55005C8.4875 2.55005 9.64075 3.0218 10.5848 3.9653C11.5282 4.9093 12 6.06255 12 7.42505C12 7.97505 11.9125 8.4938 11.7375 8.9813C11.5625 9.4688 11.325 9.90005 11.025 10.275L15.2438 14.4938C15.3813 14.6313 15.45 14.8 15.45 15C15.45 15.2 15.375 15.375 15.225 15.525C15.0875 15.6625 14.9125 15.7313 14.7 15.7313C14.4875 15.7313 14.3125 15.6625 14.175 15.525ZM7.125 10.8C8.0625 10.8 8.8595 10.472 9.516 9.81605C10.172 9.15955 10.5 8.36255 10.5 7.42505C10.5 6.48755 10.172 5.69055 9.516 5.03405C8.8595 4.37805 8.0625 4.05005 7.125 4.05005C6.1875 4.05005 5.3905 4.37805 4.734 5.03405C4.078 5.69055 3.75 6.48755 3.75 7.42505C3.75 8.36255 4.078 9.15955 4.734 9.81605C5.3905 10.472 6.1875 10.8 7.125 10.8Z" fill="#93959D"/>
</svg>

<svg xmlns="http://www.w3.org/2000/svg" width="18" height="19" fill="none"><path fill="#93959D" d="m14.175 15.525-4.2-4.2a4.57 4.57 0 0 1-2.85.975q-2.043 0-3.459-1.415T2.25 7.425t1.416-3.46Q5.081 2.55 7.125 2.55t3.46 1.415Q12 5.382 12 7.425a4.57 4.57 0 0 1-.975 2.85l4.219 4.219a.7.7 0 0 1 .206.506.72.72 0 0 1-.225.525.7.7 0 0 1-.525.206.7.7 0 0 1-.525-.206M7.125 10.8q1.407 0 2.391-.984t.984-2.391q0-1.406-.984-2.391-.984-.984-2.391-.984-1.405 0-2.391.984-.984.985-.984 2.391t.984 2.391q.986.984 2.391.984"/></svg>
